X:1
T:Tonen
T:Tonen
T:Fra "Kvartetter for blandet kor"
T:Christian Haslerud
T:Bj. Bjørnson
C:Christian Haslerud
Z:Bj. Bjørnson
%%score [ 1 2 3 4 ]
L:1/8
Q:1/4=42
M:6/8
K:F
V:1 treble nm="Soprano"
V:2 treble nm="Alto"
V:3 treble-8 nm="Tenor"
V:4 bass nm="Bass"
V:1
"^Langsomt"!mf! C | A3/2 B/ A G3/2 A/ G | F2 A G z!pp![Q:1/4=36]"^rall." d | %3
w: I|Sko- gen Smaa- gut- ten gik|Da- gen land, gik|
 c2 B A z!f![Q:1/4=42]"^a tempo" A | d d e f3/2 e/ d | ^c d B A z!pp! A | G3/2 A/ G F2 z |] %7
w: Da- gen lang, Der|hav- de han hørt slig en|un- der- lig Sang, en|un- der- lig Sang.|
V:2
!mf! C | F3/2 G/ F E3/2 E/ E | C2 F E z!pp! D | F2 E F z!f! F | A F G F3/2 G/ F | G A G E z!pp! F | %6
w: I|Sko- gen Smaa- gut- ten gik|Da- gen land, gik|Da- gen lang, Der|hav- de han hørt slig en|un- der- lig Sang, en|
 E3/2 E/ E C2 z |] %7
w: un- der- lig Sang.|
V:3
!mf! A | c3/2 c/ c c3/2 c/ c | c2 c c z!pp! F | A2 c c z!f! c | A A A A3/2 ^c/ d | %5
w: I|Sko- gen Smaa- gut- ten gik|Da- gen land, gik|Da- gen lang, Der|hav- de han hørt slig en|
 B A d ^c z!pp! =c | B3/2 c/ B A2 z |] %7
w: un- der- lig Sang, en|un- der- lig Sang.|
V:4
!mf! F, | F,3/2 F,/ F, C,3/2 C,/ C, | A,,2 F,, C, z!pp! B,, | C,2 C, F, z!f! F, | %4
w: I|Sko- gen Smaa- gut- ten gik|Da- gen land, gik|Da- gen lang, Der|
 F, D, ^C, D,3/2 E,/ F, | E, F, G, A, z!pp! F, | C,3/2 C,/ C, F,2 z |] %7
w: hav- de han hørt slig en|un- der- lig Sang, en|un- der- lig Sang.|

